X:634
T: MYS LIEB WE DU ZUR CHILCHE THUEST GA
N: E0584
O: Europa, Mitteleuropa, Schweiz, Bern
R: Liebes - Lied
M: 3/8
L: 1/8
K: A
 | A3 | cde | dcB | AGF | E3
A3 | Bcd | cde | B3
A3 | cde | dcB | AGF | E3
A3 | Bcd | cde | A3

